src/themes/files/ts-config.svg

<?xml version="1.0" encoding="UTF-8" standalone="no"?>
<svg
   version="1.2"
   viewBox="0 0 16 16"
   width="16"
   height="16"
   id="svg2"
   sodipodi:docname="ts-config-test.svg"
   inkscape:version="1.4 (e7c3feb100, 2024-10-09)"
   xmlns:inkscape="http://www.inkscape.org/namespaces/inkscape"
   xmlns:sodipodi="http://sodipodi.sourceforge.net/DTD/sodipodi-0.dtd"
   xmlns="http://www.w3.org/2000/svg"
   xmlns:svg="http://www.w3.org/2000/svg">
  <defs
     id="defs2" />
  <sodipodi:namedview
     id="namedview2"
     pagecolor="#505050"
     bordercolor="#eeeeee"
     borderopacity="1"
     inkscape:showpageshadow="0"
     inkscape:pageopacity="0"
     inkscape:pagecheckerboard="0"
     inkscape:deskcolor="#505050"
     inkscape:zoom="37.75"
     inkscape:cx="8"
     inkscape:cy="8"
     inkscape:window-width="1312"
     inkscape:window-height="743"
     inkscape:window-x="20"
     inkscape:window-y="20"
     inkscape:window-maximized="0"
     inkscape:current-layer="svg2" />
  <title
     id="title1">ts</title>
  <style
     id="style1">
		.s0 { fill: #7380f9 } 
		.s1 { fill: #8080a0 } 
	</style>
  <g
     id="Layer 1">
    <path
       id="path1"
       class="s0"
       d="M 7.9003906,3 V 5.1992188 C 7.9003906,5.5992188 7.8992188,5.7 7.6992188,6 7.6992187,6.1333333 7.6333333,6.2341146 7.5,6.3007812 c -0.1,0.2 -0.1996094,0.2000001 -0.5996094,0.5 l -2.7011718,1.5 C 3.8992187,8.5007812 3.8,8.5996094 3.5,8.5996094 c -0.1333333,0.066667 -0.2670573,0.066667 -0.4003906,0 -0.036087,0 -0.068614,-0.00101 -0.099609,-0.00391 V 11 c 0,1.4 7.813e-4,2.099609 0.3007812,2.599609 0.2000001,0.5 0.5996094,0.89961 1.0996094,1.09961 C 4.9003906,14.999219 5.6,15 7,15 h 4 c 1.4,0 2.099609,-7.81e-4 2.599609,-0.300781 0.5,-0.2 0.89961,-0.59961 1.09961,-1.09961 C 14.999219,13.099609 15,12.4 15,11 V 7 c 0,-1.4 -7.81e-4,-2.0996094 -0.300781,-2.5996094 -0.2,-0.5 -0.59961,-0.8996093 -1.09961,-1.0996094 C 13.099609,3.0007813 12.4,3 11,3 Z M 5.0996094,8.4003906 h 3.0996094 c 0.6,0 0.9003906,0.1996094 0.9003906,0.5996094 0,0.1333333 -0.065885,0.2341146 -0.1992188,0.3007812 C 8.7670573,9.4341146 8.6003906,9.5 8.4003906,9.5 h -1 v 3.800781 c 0,0.533334 -0.2345052,0.798828 -0.7011718,0.798828 -0.5333334,0 -0.7988282,-0.265494 -0.7988282,-0.798828 V 9.5 H 5.0996094 C 4.8329427,9.5 4.6333333,9.4341146 4.5,9.3007812 4.3666667,9.2341146 4.3007813,9.1333333 4.3007812,9 4.3007812,8.8 4.3666667,8.666276 4.5,8.5996094 4.6333333,8.466276 4.8329427,8.4003906 5.0996094,8.4003906 Z m 7.2011716,0 c 0.333334,0 0.666667,0.032943 1,0.099609 0.266667,0.066667 0.532162,0.2003906 0.798828,0.4003906 l 0.300782,0.2988282 C 14.467057,9.3325521 14.5,9.466276 14.5,9.5996094 14.5,9.7329427 14.434115,9.8666667 14.300781,10 c -0.133333,0.06667 -0.267057,0.09961 -0.40039,0.09961 -0.2,0 -0.366667,-0.03294 -0.5,-0.09961 C 13.333724,9.9333333 13.232943,9.8674479 13.099609,9.8007812 13.032943,9.6674479 12.934115,9.5666667 12.800781,9.5 c -0.133333,-0.066667 -0.3,-0.099609 -0.5,-0.099609 -0.2,0 -0.366666,0.032943 -0.5,0.099609 -0.06667,0 -0.134505,0.065885 -0.201172,0.1992188 C 11.532943,9.7658854 11.5,9.833724 11.5,9.9003906 c 0,0.1333334 0.06588,0.2670574 0.199219,0.4003904 0.2,0.133334 0.50039,0.232162 0.90039,0.298828 0.4,0.133334 0.766276,0.267058 1.09961,0.400391 0.266666,0.133333 0.501172,0.3 0.701172,0.5 0.2,0.266667 0.298828,0.567057 0.298828,0.900391 0,0.333333 -0.09883,0.633724 -0.298828,0.90039 -0.266667,0.266667 -0.567058,0.466276 -0.900391,0.59961 -0.333333,0.133333 -0.767448,0.199218 -1.300781,0.199218 -0.4,0 -0.766276,-0.06588 -1.09961,-0.199218 C 10.766276,13.833724 10.500781,13.7 10.300781,13.5 10.034115,13.3 9.9003906,13.067448 9.9003906,12.800781 c 0,-0.133333 0.032943,-0.267057 0.099609,-0.40039 0.06667,-0.133334 0.200391,-0.201172 0.400391,-0.201172 0.2,0 0.366666,0.0349 0.5,0.101562 0.133333,0.06667 0.232161,0.165495 0.298828,0.298828 0.133333,0.133334 0.3,0.234115 0.5,0.300782 C 11.832552,12.967057 12.034115,13 12.300781,13 h 0.398438 C 12.832552,12.933333 12.933333,12.867448 13,12.800781 13.133333,12.667448 13.199219,12.566667 13.199219,12.5 c 0,-0.2 -0.09883,-0.366667 -0.298828,-0.5 C 12.700391,11.933333 12.4,11.867448 12,11.800781 c -0.733333,-0.2 -1.266276,-0.434505 -1.599609,-0.701172 C 10.133724,10.766276 10,10.367057 10,9.9003906 10,9.633724 10.100781,9.366276 10.300781,9.0996094 c 0.2,-0.2 0.465495,-0.3666667 0.798828,-0.5 0.4,-0.1333334 0.801172,-0.1992188 1.201172,-0.1992188 z"
       sodipodi:nodetypes="cscccccccsccssccssccscssscscssscscscsscccscsccssccsccccscssccssssccscsscccsccs" />
    <path
       fill-rule="evenodd"
       class="s1"
       d="m3.2 0c-0.2 0-0.3 0.1-0.5 0.2l-2 1.2c-0.3 0.1-0.4 0.1-0.4 0.3q-0.2 0.1-0.3 0.3c0 0.1 0 0.2 0 0.6v2.1c0 0.4 0 0.4 0 0.6q0.1 0.2 0.3 0.3c0 0.1 0.1 0.1 0.4 0.3l2 1.2c0.2 0.1 0.3 0.1 0.5 0.1q0.1 0.1 0.3 0c0.2 0 0.3 0 0.5-0.1l2-1.2c0.3-0.2 0.4-0.2 0.4-0.3q0.2-0.1 0.2-0.3c0.1-0.2 0.1-0.2 0.1-0.6v-2.1c0-0.4 0-0.5-0.1-0.6q0-0.2-0.2-0.3c0-0.2-0.1-0.2-0.4-0.3l-2-1.2c-0.2-0.1-0.3-0.2-0.5-0.2q-0.2 0-0.3 0zm0.1 4.9c-0.6 0-1.2-0.6-1.2-1.3 0-0.7 0.6-1.2 1.2-1.2 0.7 0 1.3 0.5 1.3 1.2 0 0.7-0.6 1.3-1.3 1.3z"
       id="path2" />
  </g>
</svg>

<?xml version="1.0" encoding="UTF-8" standalone="no"?>
<svg
   version="1.2"
   viewBox="0 0 16 16"
   width="16"
   height="16"
   id="svg1"
   sodipodi:docname="ts-config.svg"
   inkscape:version="1.4 (e7c3feb100, 2024-10-09)"
   xmlns:inkscape="http://www.inkscape.org/namespaces/inkscape"
   xmlns:sodipodi="http://sodipodi.sourceforge.net/DTD/sodipodi-0.dtd"
   xmlns="http://www.w3.org/2000/svg"
   xmlns:svg="http://www.w3.org/2000/svg">
  <defs
     id="defs1" />
  <sodipodi:namedview
     id="namedview1"
     pagecolor="#505050"
     bordercolor="#eeeeee"
     borderopacity="1"
     inkscape:showpageshadow="0"
     inkscape:pageopacity="0"
     inkscape:pagecheckerboard="0"
     inkscape:deskcolor="#505050"
     inkscape:zoom="36.8125"
     inkscape:cx="8.0135823"
     inkscape:cy="8.0135823"
     inkscape:window-width="1326"
     inkscape:window-height="755"
     inkscape:window-x="20"
     inkscape:window-y="52"
     inkscape:window-maximized="0"
     inkscape:current-layer="svg1" />
  <title
     id="title1">ts-svg</title>
  <style
     id="style1">
		.s0 { fill: #7380f9 } 
		.s1 { fill: #8080a0 } 
	</style>
  <g
     id="Layer 1">
    <path
       id="path1"
       class="s0"
       d="M 7.9726562 3 C 7.9904767 3.1639883 8 3.3309771 8 3.5 C 8 6 6 8 3.5 8 C 3.3309771 8 3.1639883 7.9904767 3 7.9726562 L 3 11 C 3 12.4 3.0007813 13.099609 3.3007812 13.599609 C 3.5007813 14.099609 3.9003906 14.499219 4.4003906 14.699219 C 4.9003906 14.999219 5.6 15 7 15 L 11 15 C 12.4 15 13.099609 14.999219 13.599609 14.699219 C 14.099609 14.499219 14.499219 14.099609 14.699219 13.599609 C 14.999219 13.099609 15 12.4 15 11 L 15 7 C 15 5.6 14.999219 4.9003906 14.699219 4.4003906 C 14.499219 3.9003906 14.099609 3.5007813 13.599609 3.3007812 C 13.099609 3.0007813 12.4 3 11 3 L 7.9726562 3 z M 5.0996094 8.4003906 L 8.1992188 8.4003906 C 8.7992188 8.4003906 9.0996094 8.6 9.0996094 9 C 9.0996094 9.1333333 9.033724 9.2341146 8.9003906 9.3007812 C 8.7670573 9.4341146 8.6003906 9.5 8.4003906 9.5 L 7.4003906 9.5 L 7.4003906 13.300781 C 7.4003906 13.834115 7.1658854 14.099609 6.6992188 14.099609 C 6.1658854 14.099609 5.9003906 13.834115 5.9003906 13.300781 L 5.9003906 9.5 L 5.0996094 9.5 C 4.8329427 9.5 4.6333333 9.4341146 4.5 9.3007812 C 4.3666667 9.2341146 4.3007813 9.1333333 4.3007812 9 C 4.3007812 8.8 4.3666667 8.666276 4.5 8.5996094 C 4.6333333 8.466276 4.8329427 8.4003906 5.0996094 8.4003906 z M 12.300781 8.4003906 C 12.634115 8.4003906 12.967448 8.4333333 13.300781 8.5 C 13.567448 8.5666667 13.832943 8.7003906 14.099609 8.9003906 L 14.400391 9.1992188 C 14.467057 9.3325521 14.5 9.466276 14.5 9.5996094 C 14.5 9.7329427 14.434115 9.8666667 14.300781 10 C 14.167448 10.066667 14.033724 10.099609 13.900391 10.099609 C 13.700391 10.099609 13.533724 10.066667 13.400391 10 C 13.333724 9.9333333 13.232943 9.8674479 13.099609 9.8007812 C 13.032943 9.6674479 12.934115 9.5666667 12.800781 9.5 C 12.667448 9.4333333 12.500781 9.4003906 12.300781 9.4003906 C 12.100781 9.4003906 11.934115 9.4333333 11.800781 9.5 C 11.734115 9.5 11.666276 9.5658854 11.599609 9.6992188 C 11.532943 9.7658854 11.5 9.833724 11.5 9.9003906 C 11.5 10.033724 11.565885 10.167448 11.699219 10.300781 C 11.899219 10.434115 12.199609 10.532943 12.599609 10.599609 C 12.999609 10.732943 13.365885 10.866667 13.699219 11 C 13.965885 11.133333 14.200391 11.3 14.400391 11.5 C 14.600391 11.766667 14.699219 12.067057 14.699219 12.400391 C 14.699219 12.733724 14.600391 13.034115 14.400391 13.300781 C 14.133724 13.567448 13.833333 13.767057 13.5 13.900391 C 13.166667 14.033724 12.732552 14.099609 12.199219 14.099609 C 11.799219 14.099609 11.432943 14.033724 11.099609 13.900391 C 10.766276 13.833724 10.500781 13.7 10.300781 13.5 C 10.034115 13.3 9.9003906 13.067448 9.9003906 12.800781 C 9.9003906 12.667448 9.9333333 12.533724 10 12.400391 C 10.066667 12.267057 10.200391 12.199219 10.400391 12.199219 C 10.600391 12.199219 10.767057 12.234115 10.900391 12.300781 C 11.033724 12.367448 11.132552 12.466276 11.199219 12.599609 C 11.332552 12.732943 11.499219 12.833724 11.699219 12.900391 C 11.832552 12.967057 12.034115 13 12.300781 13 L 12.699219 13 C 12.832552 12.933333 12.933333 12.867448 13 12.800781 C 13.133333 12.667448 13.199219 12.566667 13.199219 12.5 C 13.199219 12.3 13.100391 12.133333 12.900391 12 C 12.700391 11.933333 12.4 11.867448 12 11.800781 C 11.266667 11.600781 10.733724 11.366276 10.400391 11.099609 C 10.133724 10.766276 10 10.367057 10 9.9003906 C 10 9.633724 10.100781 9.366276 10.300781 9.0996094 C 10.500781 8.8996094 10.766276 8.7329427 11.099609 8.5996094 C 11.499609 8.466276 11.900781 8.4003906 12.300781 8.4003906 z " />
    <path
       id="path2"
       fill-rule="evenodd"
       class="s1"
       d="m3.5 0c-1.9 0-3.5 1.6-3.5 3.5 0 1.9 1.6 3.5 3.5 3.5 1.9 0 3.5-1.6 3.5-3.5 0-1.9-1.6-3.5-3.5-3.5zm-1.2 1h0.2 0.1l0.1 0.1q0.3 0.3 0.7 0.3 0.4 0 0.6-0.3 0.1-0.1 0.2-0.1h0.1 0.1l0.6 0.4q0.1 0 0.1 0.1v0.1 0.2q-0.1 0.3 0.1 0.6 0.2 0.4 0.5 0.5 0.2 0 0.2 0.1h0.1v0.2 0.3 0.3 0.2h-0.1q0 0.1-0.2 0.1-0.3 0.1-0.5 0.4-0.2 0.4-0.1 0.7v0.2 0.1l-0.1 0.1q-0.3 0.2-0.6 0.3l-0.1 0.1h-0.1l-0.2-0.2q-0.2-0.2-0.6-0.2-0.4 0-0.7 0.2-0.1 0.1-0.1 0.2h-0.1q-0.1 0-0.2-0.1-0.3-0.1-0.5-0.3l-0.1-0.1q-0.1 0-0.1-0.1l0.1-0.2q0.1-0.3-0.1-0.7-0.2-0.3-0.6-0.4-0.1 0-0.2-0.1-0.1-0.1-0.1-0.2v-0.3-0.3q0-0.1 0.1-0.2 0.1-0.1 0.2-0.1 0.4-0.1 0.6-0.5 0.2-0.3 0.1-0.6l-0.1-0.2q0-0.1 0.1-0.1 0-0.1 0.1-0.1 0.2-0.2 0.5-0.4z" />
  </g>
</svg>
